X:26
T:Persapojkarnas polska
R:polska J
A:H\"alsingland
Z:id:hn-jp-26
M:3/4
L:1/16
K:Ador
A2a2 a2ba g2eg | f2ed e2c2 {Bc}B2A2 | A2a2 a2ba g2eg |
f2ed e2g2 b2g2 | f2^d2 efg2 e4 :||: e3^c A2^c2 e2fa |
g3g agfe d4 | d3B G2B2 d3e | =f2=f2 g=fed =c4 | c3B A2c2 e2c2 | 
BcBA ^G2A2 E4 | e3^c A2^c2 e2fa | g3g agfe d4 | d3B G2B2 d3e |
=f2=f2 g=fed =c4 | c3B A2c2 e2c2 | (3BcBA^G A8 :|
